X: 153
T:RIDEE 6 TEMPS N 4
M:4/4
L:1/4
Q:1/4=150
Z:Yves BELOTTEAU
K:G
|d3/2 z/2 Bd cBA/2B/2c|d3/2 z/2 Bd cBA/2B/2c|d3/2 z/2 Bd cBA/2B/2c|d3/2
z/2 Bd cBAB|
G3/2 z/2 AB c/2B/2AB3/2 z/2 |G/2G/2GF/2G/2F E/2F/2ED3/2 z/2 |G/2G/2GAB c
/2B/2AB3/2 z/2 |d/2d/2dcB A/2G/2FG3/2 z/2 |
G3/2 z/2 AB c/2B/2AB3/2 z/2 |G/2G/2GF/2G/2F E/2F/2ED3/2 z/2 |G/2G/2GAB c
/2B/2AB3/2 z/2 |d/2d/2dcB A/2G/2FG3/2 z/2 |
G3/2 z/2 F3/2 z/2 E3/2 z/2 D3/2 z/2 |G/2G/2GF/2G/2F E/2F/2ED3/2 z/2 |G3/
2 z/2 F3/2 z/2 E3/2 z/2 D3/2 z/2 |G/2G/2GF/2G/2F E/2F/2ED3/2 z/2 |
G3/2 z/2 AB c/2B/2AB3/2 z/2 |G/2G/2GF/2G/2F E/2F/2ED3/2 z/2 |G/2G/2GAB c
/2B/2AB3/2 z/2 |d/2d/2dcB A/2G/2FG3/2 z/2 |
G3/2 z/2 AB c/2B/2AB3/2 z/2 |G/2G/2GF/2G/2F E/2F/2ED3/2 z/2 |G/2G/2GAB c
/2B/2AB3/2 z/2 |d/2d/2dcB A/2G/2FG3/2|
W:
W: From "Falaleiro" http://home.t-online.de/home/pheld/homepage.htm
